!!!!SEGMENT: pl-cz--iii-623--001-003_raszek-waclaw--nieszpory-beatus-vir.krn
!!!cenid: 18xx:1006
!!!COM: Raszek, Wacław
!!!COM-rismid: pe30020314
!!!CDT: <1848->1848
!!!CNT:
!!!OPR: Nieszpory
!!!OTL: Beatus vir
!!!OMV: 003
!!!PDT:
!!!AGN: Sacred
!!!SMS-siglum: PL-CZ
!!!SMS-shelfmark: III-623
!!!SMS-shelfwork: 001-003 M
!!!SMS-variant:
!!!SMS-altvar:
!!!NIFC-rismid: 300001052
!!!URL-scan: http://repozytorium.nifc.pl/skany/pl-cz-nut--iii-623
!!!ONB-nifc: UWAGA: części Nieszporów: Dixit Dominus, Confitebor, Beatus vir, Laudate pueri, In exitu, Laudate Dominum, Iste confessor, Magnificat, Salve Regina. Uwaga: w Canto 1,2 i Tenorze zaburzona kolejność części
!!!OMD: Moderato
!!!AIN: 1 bass 2 clars 1 organ 2 soprn 1 tenor
!!!key: F
**kern	**kern	**text	**text	**text	**kern	**text	**text	**text	**kern	**text	**text	**text	**kern	**text	**text	**text	**kern	**kern
*part7	*part6	*part6	*part6	*part6	*part5	*part5	*part5	*part5	*part4	*part4	*part4	*part4	*part3	*part3	*part3	*part3	*part2	*part1
*staff7	*staff6	*staff6	*staff6	*staff6	*staff5	*staff5	*staff5	*staff5	*staff4	*staff4	*staff4	*staff4	*staff3	*staff3	*staff3	*staff3	*staff2	*staff1
*I"Baſso.[Organo]	*I"Baſso.	*	*	*	*I"Tenore	*	*	*	*I"Canto Secondo	*	*	*	*I"Canto Primo	*	*	*	*I"Clarinetto Secondo in B.	*I"Clarinetto Primo in B.
*I'b	*I'B	*	*	*	*I'T	*	*	*	*I'S 2	*	*	*	*I'S 1	*	*	*	*I'Cl. II in B	*I'Cl. I in B
*Iorgan	*Ibass	*	*	*	*Itenor	*	*	*	*Isoprn	*	*	*	*Isoprn	*	*	*	*Iclars	*Iclars
*ICklav	*ICvox	*	*	*	*ICvox	*	*	*	*ICvox	*	*	*	*ICvox	*	*	*	*ICww	*ICww
*clefF4	*clefF4	*	*	*	*clefC4	*	*	*	*clefC1	*	*	*	*clefC1	*	*	*	*clefG2	*clefG2
*	*	*	*	*	*	*	*	*	*	*	*	*	*	*	*	*	*ITrd1c2	*ITrd1c2
*	*	*	*	*	*	*	*	*	*	*	*	*	*	*	*	*	*ok[]	*
*k[b-]	*k[b-]	*	*	*	*k[b-]	*	*	*	*k[b-]	*	*	*	*k[b-]	*	*	*	*k[b-]	*k[b-]
*F:	*F:	*	*	*	*F:	*	*	*	*F:	*	*	*	*F:	*	*	*	*F:	*F:
*M2/2	*M2/2	*	*	*	*M2/2	*	*	*	*M2/2	*	*	*	*M2/2	*	*	*	*M2/2	*M2/2
*met(c|)	*met(c|)	*	*	*	*met(c|)	*	*	*	*met(c|)	*	*	*	*met(c|)	*	*	*	*met(c|)	*met(c|)
*>[A,A,A]	*>[A,A,A]	*	*	*	*>[A,A,A]	*	*	*	*>[A,A,A]	*	*	*	*>[A,A,A]	*	*	*	*>[A,A,A]	*>[A,A,A]
=1	=1	=1	=1	=1	=1	=1	=1	=1	=1	=1	=1	=1	=1	=1	=1	=1	=1	=1
*>A	*>A	*	*	*	*>A	*	*	*	*>A	*	*	*	*>A	*	*	*	*>A	*>A
*	*	*	*	*	*	*	*	*	*2\right	*	*	*	*2\right	*	*	*	*	*
!	!LO:TX:a:t=3.	!	!	!	!LO:TX:a:t=Moder	!	!	!	!	!	!	!	!	!	!	!	!LO:TX:a:t=in B.	!
!LO:TX:a:t=Moder.	!LO:TX:a:t=Moder	!	!	!	!LO:TX:a:t=3.	!	!	!	!LO:TX:a:t=Moder&colon;	!	!	!	!LO:TX:a:t=Moder&colon;	!	!	!	!LO:TX:a:t=Moder&colon;	!LO:TX:a:t=in B.
4FF/	0r	.	.	.	0r	.	.	.	2a\	Szczę-	Krew	Dom	2cc\	Szczę-	Krew	Dom	8r	8r
.	.	.	.	.	.	.	.	.	.	.	.	.	.	.	.	.	8A/L	8c/L
4F\	.	.	.	.	.	.	.	.	.	.	.	.	.	.	.	.	8A/	8c/
.	.	.	.	.	.	.	.	.	.	.	.	.	.	.	.	.	8A/J	8c/J
4r	.	.	.	.	.	.	.	.	4a\	-sli-	ie-	ie-	4ff\	-śli-	ie-	ie-	4A/	4f/
4F\	.	.	.	.	.	.	.	.	4a\	-wy	-go	-go	4cc\	-wy	-go	-go	4r	4r
=2	=2	=2	=2	=2	=2	=2	=2	=2	=2	=2	=2	=2	=2	=2	=2	=2	=2	=2
4FF/	.	.	.	.	.	.	.	.	2a\	i	za-	bę-	2cc\	i	za-	bę-	8r	8r
.	.	.	.	.	.	.	.	.	.	.	.	.	.	.	.	.	8A/L	8c/L
4F\	.	.	.	.	.	.	.	.	.	.	.	.	.	.	.	.	8A/	8c/
.	.	.	.	.	.	.	.	.	.	.	.	.	.	.	.	.	8A/J	8c/J
4F\	.	.	.	.	.	.	.	.	4b-\	nie	-cna	-dzie	4dd\	nie	-cna	-dzie	8r	8r
.	.	.	.	.	.	.	.	.	.	.	.	.	.	.	.	.	8B-/	8d/
4F\	.	.	.	.	.	.	.	.	4g\	zna	na	ob-	4b-\	zna	na	ob-	8r	8r
.	.	.	.	.	.	.	.	.	.	.	.	.	.	.	.	.	8c/	8e/
!	!	!	!	!	!	!	!	!	!	!	!	!	!LO:LB:g=original	!	!	!	!	!LO:LB:g=original
=3	=3	=3	=3	=3	=3	=3	=3	=3	=3	=3	=3	=3	=3	=3	=3	=3	=3	=3
4FF/	1r	.	.	.	1r	.	.	.	2g/	ka-	zie-	-fi-	2b-\	Ka-	zie-	-fi-	8r	8r
.	.	.	.	.	.	.	.	.	.	.	.	.	.	.	.	.	8c/L	8e/L
4F\	.	.	.	.	.	.	.	.	.	.	.	.	.	.	.	.	8e/	8g/
.	.	.	.	.	.	.	.	.	.	.	.	.	.	.	.	.	8g/J	8b-/J
8FF/L	.	.	.	.	.	.	.	.	4f/	-źni	-mi	-ty	4a\	-źni	-mi	-ty	4f/	8a\L
8AA/	.	.	.	.	.	.	.	.	.	.	.	.	.	.	.	.	.	8cc\
8C/	.	.	.	.	.	.	.	.	4r	.	.	.	4r	.	.	.	4a/	8ff\
8F/J	.	.	.	.	.	.	.	.	.	.	.	.	.	.	.	.	.	8cc\J
!	!	!	!	!	!	!	!	!	!LO:LB:g=original	!	!	!	!	!	!	!	!	!
=4	=4	=4	=4	=4	=4	=4	=4	=4	=4	=4	=4	=4	=4	=4	=4	=4	=4	=4
*	*	*	*	*	*2\right	*	*	*	*	*	*	*	*	*	*	*	*	*
4B-\	2BB-/	Kto	po-	Wzbio-	2B-\	Kto	Po-	Wzbio-	2f/	kto	po-	Wzbio-	2dd\	kto	Po-	wzbio-	8f/L	8dd\L
.	.	.	.	.	.	.	.	.	.	.	.	.	.	.	.	.	8d/	8f\
4BB-/	.	.	.	.	.	.	.	.	.	.	.	.	.	.	.	.	8f/	8b-\
.	.	.	.	.	.	.	.	.	.	.	.	.	.	.	.	.	8b-/J	8dd\J
4B-\	4B-\	wpań-	-ró-	-ry	4B-\	wpań-	-ró-	-ry	4f/	wpań-	-ró-	-ry	4dd\	wpań-	-ró-	-ry	8r	8r
.	.	.	.	.	.	.	.	.	.	.	.	.	.	.	.	.	8dd\	8ff\
4A\	4A\	-skiey	-wna	i	4d\	-skiey	-wna	i	4f#X/	-skiey	-wna	i	4cc\	-skiey	-wna	i	8r	8r
.	.	.	.	.	.	.	.	.	.	.	.	.	.	.	.	.	8cc\	8ff#X\
!LO:LB:g=original	!	!	!	!	!	!	!	!	!	!	!	!	!	!	!	!	!LO:LB:g=original	!
=5	=5	=5	=5	=5	=5	=5	=5	=5	=5	=5	=5	=5	=5	=5	=5	=5	=5	=5
*	*2\right	*	*	*	*	*	*	*	*	*	*	*	*	*	*	*	*	*
4G\	2G\	ży-	za-	trwa-	2d\	ży-	za-	trwa-	2g/	ży-	za-	trwa-	2b-\	ży-	za-	trwa-	8b-/L	8gg\L
.	.	.	.	.	.	.	.	.	.	.	.	.	.	.	.	.	8d/	8b-\
4GG/	.	.	.	.	.	.	.	.	.	.	.	.	.	.	.	.	8g/	8dd\
.	.	.	.	.	.	.	.	.	.	.	.	.	.	.	.	.	8b-/J	8gg\J
4E\	4E\	-ie	-wżdy	-łe	4c\	-ie	-wżdy	-łe	4g/	-ie	-wżdy	-łe	4b-\	-ie	-wdy	-łe	8r	8r
.	.	.	.	.	.	.	.	.	.	.	.	.	.	.	.	.	8gg\	8bb-\
4F\	4F\	bo-	zmo-	za-	4c\	bo-	zmo-	za-	4f/	bo-	zmo-	za-	4a\	bo-	zmo-	za-	8r	8r
.	.	.	.	.	.	.	.	.	.	.	.	.	.	.	.	.	8ff\	8aa\
!	!	!	!	!	!LO:LB:g=original	!	!	!	!	!	!	!	!LO:LB:g=original	!	!	!	!	!
=6	=6	=6	=6	=6	=6	=6	=6	=6	=6	=6	=6	=6	=6	=6	=6	=6	=6	=6
4C/	2C/	-ja-	-zne-	-szczy-	2c\	-ja-	-żne-	-szczy-	2f/	-ja-	-żne-	-szczy-	2a\	-ja-	-żne-	-szczy-	8r	8r
.	.	.	.	.	.	.	.	.	.	.	.	.	.	.	.	.	8ff\L	8aa\L
4c\	.	.	.	.	.	.	.	.	.	.	.	.	.	.	.	.	8ff\	8aa\
.	.	.	.	.	.	.	.	.	.	.	.	.	.	.	.	.	8ff\J	8aa\J
!LO:TX:a:t=P:problem=mixed beam	!	!	!	!	!	!	!	!	!	!	!	!	!	!	!	!	!	!
8C/L	4C/	-zni	-mi	-ty	4c\	-źni	-mi	-ty	4e/	-źni	-mi	-ty	4g\	-źni	-mi.	-ty.	4ee\	4gg\
8c\	.	.	.	.	.	.	.	.	.	.	.	.	.	.	.	.	.	.
8G\	4r	.	.	.	4r	.	.	.	4r	.	.	.	4r	.	.	.	4r	4r
8E\J	.	.	.	.	.	.	.	.	.	.	.	.	.	.	.	.	.	.
!	!LO:LB:g=original	!	!	!	!	!	!	!	!	!	!	!	!	!	!	!	!	!
=7	=7	=7	=7	=7	=7	=7	=7	=7	=7	=7	=7	=7	=7	=7	=7	=7	=7	=7
*	*	*	*	*	*	*	*	*	*	*	*	*	*	*	*	*	*	*2\right
4C/	2C/	Nay-	Ród	a	2G/	Nay-	Ród	a	2e/	Nay-	Ród	A	2cc\	Nay-	Ród	A	8e/L	2ccc\
.	.	.	.	.	.	.	.	.	.	.	.	.	.	.	.	.	8g/	.
4C/	.	.	.	.	.	.	.	.	.	.	.	.	.	.	.	.	8e/	.
.	.	.	.	.	.	.	.	.	.	.	.	.	.	.	.	.	8g/J	.
*	*	*	*	*	*	*	*	*	*	*	*	*	*	*	*	*	*rep	*
4E/	4E/	-mil-	się	cześć	4G/	-mil-	się	cześć	4e/	-mil-	się	cześć	4cc\	-mil-	się	cześć	8e/L	4gg\
.	.	.	.	.	.	.	.	.	.	.	.	.	.	.	.	.	8g/	.
4G/	4G/	-sza	cno-	po-	4G/	-sza	cno-	po-	4e/	-ſza	cno-	po-	4cc\	-ſza	cno-	po	8e/	4ee\
.	.	.	.	.	.	.	.	.	.	.	.	.	.	.	.	.	8g/J	.
*	*	*	*	*	*	*	*	*	*	*	*	*	*	*	*	*	*Xrep	*
!	!	!	!	!	!	!	!	!	!LO:LB:g=original	!	!	!	!	!	!	!	!	!
=8	=8	=8	=8	=8	=8	=8	=8	=8	=8	=8	=8	=8	=8	=8	=8	=8	=8	=8
4c\	(>4c\	Je-	-tli-	-czći-	2G/	Je-	-tli-	-czći-	(<4e/	Je-	-tli-	-czći-	(>4cc\	je-	-tli-	czci-	8e/L	8cc\L
.	.	.	.	.	.	.	.	.	.	.	.	.	.	.	.	.	8g/	8gg\
4G\	4G\)	.	.	.	.	.	.	.	4f/)	.	.	.	4bn\)	.	.	.	8d/	8bX\
.	.	.	.	.	.	.	.	.	.	.	.	.	.	.	.	.	8g/J	8gg\J
!	!	!	!	!	!	!	!	!	!	!	!	!	!	!	!	!	!	!LO:LB:g=original
=-	=-	=-	=-	=-	=-	=-	=-	=-	=-	=-	=-	=-	=-	=-	=-	=-	=-	=-
4E\	4E\	-mu	-wych	-we-	4c\	-mu	-wych	-we-	4g/	-mu	-wych	-we-	4cc\	-mu	-wych	-we-	8c/L	8cc\L
.	.	.	.	.	.	.	.	.	.	.	.	.	.	.	.	.	8g/	8gg\
4C\	4D\	iest	roz-	-go	4Bn\	iest	roz-	-go	4g/	iest	roz-	-go	4dd\	jest	roz-	-go	8f/	8dd\
.	.	.	.	.	.	.	.	.	.	.	.	.	.	.	.	.	8g/J	8gg\J
!LO:LB:g=original	!	!	!	!	!	!	!	!	!	!	!	!	!	!	!	!	!	!
=9	=9	=9	=9	=9	=9	=9	=9	=9	=9	=9	=9	=9	=9	=9	=9	=9	=9	=9
4C\	2C/	dro-	-ple-	człe-	2c\	dro-	-ple-	człe-	2g/	dro-	-ple-	człe-	2ee\	dro-	-ple-	człe-	8c/L	8ee\L
.	.	.	.	.	.	.	.	.	.	.	.	.	.	.	.	.	8e/	8gg\
4E\	.	.	.	.	.	.	.	.	.	.	.	.	.	.	.	.	8g/	8cc\
.	.	.	.	.	.	.	.	.	.	.	.	.	.	.	.	.	8cc/J	8ee\J
4G\	4c\	-ga	-ni	-ka	4G/	-ga	-ni	-ka	4e/	-ga	-ni	-ka	4cc\	-ga	-ni	-ka	8e/L	8g/L
.	.	.	.	.	.	.	.	.	.	.	.	.	.	.	.	.	8g/	8cc/
4BB-/	4r	.	.	.	4r	.	.	.	4r	.	.	.	4r	.	.	.	8c/	8e/
.	.	.	.	.	.	.	.	.	.	.	.	.	.	.	.	.	8e/J	8g/J
!	!LO:LB:g=original	!	!	!	!LO:LB:g=original	!	!	!	!	!	!	!	!LO:LB:g=original	!	!	!	!LO:LB:g=original	!
=10	=10	=10	=10	=10	=10	=10	=10	=10	=10	=10	=10	=10	=10	=10	=10	=10	=10	=10
!	!	!	!	!	!	!	!	!	!	!	!	!	!	!	!	!	!	!LO:TX:a:t=P:problem=mixed beam
4AA/	4A\	iść	i	Póy-	4c\	iść	i	Póy-	4f/	iść	i	Póy-	4ff\	iść	i	Póy-	4c/	8f/L
.	.	.	.	.	.	.	.	.	.	.	.	.	.	.	.	.	.	8ff\
4A\	4A\	we-	bę-	-dzie	4c\	we-	bę-	-dzie	4f/	we-	bę-	-dzie	4cc\	we-	bę-	-dzie	4cc\	8aa\
.	.	.	.	.	.	.	.	.	.	.	.	.	.	.	.	.	.	8ff\J
4B-\	4B-\	-dług	-dą	do	4B-\	-dług	-dą	do	4f/	-dług	-dą	do	4dd\	-dług	-dą	do	4f/	8dd\L
.	.	.	.	.	.	.	.	.	.	.	.	.	.	.	.	.	.	8ff\
!	!	!	!	!	!	!	!	!	!	!	!	!	!	!	!	!	!LO:TX:a:t=P:problem=mixed beam	!
4BB-/	4BB-/	Przy-	bło-	wie-	4d\	Przy-	bło-	wie-	4g/	Przy-	bło-	wie-	4b-\	Przy-	bło-	wie-	8g/L	8dd\
.	.	.	.	.	.	.	.	.	.	.	.	.	.	.	.	.	8gg\J	8bb-\J
!	!	!	!	!	!	!	!	!	!LO:LB:g=original	!	!	!	!	!	!	!	!	!
=11	=11	=11	=11	=11	=11	=11	=11	=11	=11	=11	=11	=11	=11	=11	=11	=11	=11	=11
4C/	2.C/	-ka-	-go-	-ka	2.c\	-ka-	-go-	-ka	(2f/	-ka-	-go-	-ka	(>2a\	-ka-	-go-	-ka	8ff\L	8aa\L
.	.	.	.	.	.	.	.	.	.	.	.	.	.	.	.	.	8a\	8cc\
4C/	.	.	.	.	.	.	.	.	.	.	.	.	.	.	.	.	8cc\	8ff\
.	.	.	.	.	.	.	.	.	.	.	.	.	.	.	.	.	8ff\J	8aa\J
4r	.	.	.	.	.	.	.	.	8a/L	.	.	.	8cc\L	.	.	.	8aa\L	8ccc\L
.	.	.	.	.	.	.	.	.	8g/J)	.	.	.	8b-\J)	.	.	.	8gg\	8bb-\
4C/	4C/	-zań	-sła-	do	(>8c\L	-zań	-sła-	do	8f/L	-zań	-sła-	do	8a\L	-zań	-sła-	do	8ff\	8aa\
.	.	.	.	.	8B-\J)	.	.	.	8e/J	.	.	.	8g\J	.	.	.	8ee\J	8gg\J
=12	=12	=12	=12	=12	=12	=12	=12	=12	=12	=12	=12	=12	=12	=12	=12	=12	=12	=12
4C/	2C/	Bo-	-wie-	wie-	2B-\	Bo-	-wie-	wie-	2e/	Bo-	-wie-	wie-	2g/	Bo-	-wie-	wie-	8ee\L	(>2gg\
.	.	.	.	.	.	.	.	.	.	.	.	.	.	.	.	.	8cc\	.
4CC/	.	.	.	.	.	.	.	.	.	.	.	.	.	.	.	.	8b-\	.
.	.	.	.	.	.	.	.	.	.	.	.	.	.	.	.	.	8cc\J	.
4FF/	4FF/	-ga	-ni	-ka	4A\	-ga	-ni	-ka	4f/	-ga	-ni	-ka	4f/	-ga	-ni.	-ka	4a\	4ff\)
!LO:TX:b:t=Da Capo	!	!	!	!	!LO:TX:a:t=Da\nCapo.	!	!	!	!LO:TX:b:t=Da\nCapo.	!	!	!	!	!	!	!	!LO:TX:a:t=Da \nCapo	!LO:TX:a:t=Da\nCapo
4r	4r	.	.	.	4r	.	.	.	4r	.	.	.	4r	.	.	.	4r	4r
!LO:PB:g=original	!LO:PB:g=original	!	!	!	!LO:LB:g=original	!	!	!	!LO:LB:g=original	!	!	!	!LO:LB:g=original	!	!	!	!LO:PB:g=original	!LO:PB:g=original
==	==	==	==	==	==	==	==	==	==	==	==	==	==	==	==	==	==	==
*-	*-	*-	*-	*-	*-	*-	*-	*-	*-	*-	*-	*-	*-	*-	*-	*-	*-	*-
!!!system-decoration: [(s1,s2)][(s3,s4,s5,s6)]s7
!!!RDF**kern: < = below
!!!RDF**kern: > = above
!!!ENC: Berenika Jozajtis
!!!END: 2020-09-29
!!!ENC: Marta Chmielewska
!!!END: 2021-11-19
